packages/rn-bitcoin-icons/svg/filled/safe.svg

<svg width="24" height="24" viewBox="0 0 24 24" fill="none" xmlns="http://www.w3.org/2000/svg">
<path fill-rule="evenodd" clip-rule="evenodd" d="M7.5 7.50003V16.5H16.5V7.50003H7.5ZM12 14C12.3709 14 12.7182 13.899 13.016 13.7231L14.1464 14.8536C14.3417 15.0488 14.6583 15.0488 14.8536 14.8536C15.0488 14.6583 15.0488 14.3417 14.8536 14.1464L13.7231 13.016C13.899 12.7182 14 12.3709 14 12C14 11.6291 13.899 11.2818 13.7231 10.984L14.8536 9.85355C15.0488 9.65829 15.0488 9.34171 14.8536 9.14645C14.6583 8.95118 14.3417 8.95118 14.1464 9.14645L13.016 10.2769C12.7182 10.101 12.3709 10 12 10C11.6291 10 11.2818 10.101 10.984 10.2769L9.85355 9.14645C9.65829 8.95118 9.34171 8.95118 9.14645 9.14645C8.95118 9.34171 8.95118 9.65829 9.14645 9.85355L10.2769 10.984C10.101 11.2818 10 11.6291 10 12C10 12.3709 10.101 12.7182 10.2769 13.016L9.14645 14.1464C8.95118 14.3417 8.95118 14.6583 9.14645 14.8536C9.34171 15.0488 9.65829 15.0488 9.85355 14.8536L10.984 13.7231C11.2818 13.899 11.6291 14 12 14Z" fill="black"/>
<path fill-rule="evenodd" clip-rule="evenodd" d="M5 6C5 5.44771 5.44772 5 6 5H18C18.5523 5 19 5.44772 19 6V17.9347C19 18.487 18.5523 18.9347 18 18.9347H6C5.44772 18.9347 5 18.487 5 17.9347V6ZM6.5 7.00003C6.5 6.72389 6.72386 6.50003 7 6.50003H17C17.2761 6.50003 17.5 6.72389 17.5 7.00003V17C17.5 17.2762 17.2761 17.5 17 17.5H7C6.72386 17.5 6.5 17.2762 6.5 17V7.00003Z" fill="black"/>
<circle cx="12" cy="12" r="1" fill="black"/>
<path d="M7 19H9V19.5778C9 19.811 8.81096 20 8.57778 20H7.42222C7.18904 20 7 19.811 7 19.5778V19Z" fill="black"/>
<path d="M15 19H17V19.5778C17 19.811 16.811 20 16.5778 20H15.4222C15.189 20 15 19.811 15 19.5778V19Z" fill="black"/>
</svg>

<svg xmlns="http://www.w3.org/2000/svg" viewBox="0 0 24 24" fill="currentColor">
  <path fill-rule="evenodd" d="M7.5 7.5v9h9v-9h-9zM12 14c.37 0 .718-.101 1.016-.277l1.13 1.13a.5.5 0 00.708-.707l-1.13-1.13c.175-.298.276-.645.276-1.016 0-.37-.101-.718-.277-1.016l1.13-1.13a.5.5 0 00-.707-.708l-1.13 1.13A1.991 1.991 0 0012 10c-.37 0-.718.101-1.016.277l-1.13-1.13a.5.5 0 10-.708.707l1.13 1.13A1.991 1.991 0 0010 12c0 .37.101.718.277 1.016l-1.13 1.13a.5.5 0 00.707.708l1.13-1.13c.298.175.645.276 1.016.276z" clip-rule="evenodd"/>
  <path fill-rule="evenodd" d="M5 6a1 1 0 011-1h12a1 1 0 011 1v11.935a1 1 0 01-1 1H6a1 1 0 01-1-1V6zm1.5 1a.5.5 0 01.5-.5h10a.5.5 0 01.5.5v10a.5.5 0 01-.5.5H7a.5.5 0 01-.5-.5V7z" clip-rule="evenodd"/>
  <circle cx="12" cy="12" r="1"/>
  <path d="M7 19h2v.578a.422.422 0 01-.422.422H7.422A.422.422 0 017 19.578V19zM15 19h2v.578a.422.422 0 01-.422.422h-1.156a.422.422 0 01-.422-.422V19z"/>
</svg>
